icons/all-servers-24.svg

<?xml version="1.0" encoding="UTF-8"?><svg id="icons" xmlns="http://www.w3.org/2000/svg" viewBox="0 0 24 24"><path d="M9,12v1h1v-1h-1Zm-2,0v1h1v-1h-1Zm-2,0v1h1v-1h-1Zm4-4v1h1v-1h-1Zm-2,0v1h1v-1h-1Zm-2,0v1h1v-1h-1Zm4-4v1h1v-1h-1Zm-2,1h1v-1h-1v1Zm-2,0h1v-1h-1v1Zm4,3v1h1v-1h-1Zm-2,1h1v-1h-1v1Zm-2,0h1v-1h-1v1Zm4,3v1h1v-1h-1Zm-2,1h1v-1h-1v1Zm-2,0h1v-1h-1v1Zm17,2V2H2V15H15v3h-2v1H4v1H13v1h5v-1h2v-1h-2v-1h-2v-3h6ZM3,3H21v3H3V3Zm0,4H21v3H3v-3Zm14,12v1h-3v-1h3ZM3,14v-3H21v3H3Zm6-1h1v-1h-1v1Zm0-4h1v-1h-1v1Zm0-4h1v-1h-1v1Zm-2,8h1v-1h-1v1Zm0-4h1v-1h-1v1Zm0-4h1v-1h-1v1Zm-2,8h1v-1h-1v1Zm0-4h1v-1h-1v1Zm0-4h1v-1h-1v1Zm4-1v1h1v-1h-1Zm-2,0v1h1v-1h-1Zm-2,0v1h1v-1h-1Z"/><path fill="none" d="M0 0h24v24H0z"/></svg>

<svg xmlns="http://www.w3.org/2000/svg" viewBox="0 0 24 24"><path d="M9 12v1h1v-1H9zm-2 0v1h1v-1H7zm-2 0v1h1v-1H5zm4-4v1h1V8H9zM7 8v1h1V8H7zM5 8v1h1V8H5zm4-4v1h1V4H9zM7 5h1V4H7v1zM5 5h1V4H5v1zm4 3v1h1V8H9zM7 9h1V8H7v1zM5 9h1V8H5v1zm4 3v1h1v-1H9zm-2 1h1v-1H7v1zm-2 0h1v-1H5v1zm17 2V2H2v13h13v3h-2v1H4v1h9v1h5v-1h2v-1h-2v-1h-2v-3h6zM3 3h18v3H3V3zm0 4h18v3H3V7zm14 12v1h-3v-1h3zM3 14v-3h18v3H3zm6-1h1v-1H9v1zm0-4h1V8H9v1zm0-4h1V4H9v1zm-2 8h1v-1H7v1zm0-4h1V8H7v1zm0-4h1V4H7v1zm-2 8h1v-1H5v1zm0-4h1V8H5v1zm0-4h1V4H5v1zm4-1v1h1V4H9zM7 4v1h1V4H7zM5 4v1h1V4H5z"/><path fill="none" d="M0 0h24v24H0z"/></svg>
